img/pay3.svg

<svg width="29" height="21" viewBox="0 0 29 21" fill="none" xmlns="http://www.w3.org/2000/svg">
<path d="M23.2815 9.24757C23.2815 9.24757 23.6566 10.8955 23.741 11.2407H22.0923L22.8824 9.31374C22.8726 9.3273 23.0451 8.91033 23.1437 8.65361L23.2815 9.24757ZM28.5104 2.54574V18.1371C28.5102 18.701 28.2604 19.2417 27.8159 19.6404C27.3714 20.0391 26.7685 20.2632 26.1399 20.2634H2.43786C1.80924 20.2632 1.20644 20.0391 0.761939 19.6404C0.31744 19.2417 0.0676184 18.701 0.0673828 18.1371V2.54574C0.0676184 1.98188 0.31744 1.44116 0.761939 1.04245C1.20644 0.643734 1.80924 0.419645 2.43786 0.419434H26.1399C26.7685 0.419645 27.3714 0.643734 27.8159 1.04245C28.2604 1.44116 28.5102 1.98188 28.5104 2.54574ZM7.59833 13.6724L10.719 6.79837H8.62047L6.68018 11.4935L6.46775 10.5415L5.77625 7.37878C5.66248 6.94028 5.31229 6.81591 4.87766 6.79837H1.68325L1.64859 6.9355C2.38015 7.09648 3.08189 7.35159 3.73197 7.6929L5.49983 13.6724H7.59833ZM12.2602 13.6812L13.5045 6.79837H11.5198L10.2808 13.6812H12.2602ZM19.1681 11.4313C19.1778 10.6476 18.6445 10.0496 17.5042 9.55771C16.8082 9.24279 16.3834 9.03071 16.3834 8.70702C16.3932 8.41443 16.7443 8.11306 17.5237 8.11306C18.0315 8.10021 18.5359 8.18957 19.0001 8.37456L19.1778 8.44951L19.4498 6.96101C18.8824 6.76616 18.2797 6.66697 17.6722 6.66841C15.7114 6.66841 14.3338 7.60759 14.324 8.94461C14.3089 9.93242 15.3115 10.4817 16.0625 10.8134C16.8278 11.1498 17.09 11.3715 17.09 11.6681C17.0802 12.1289 16.4678 12.341 15.8999 12.341C15.1097 12.341 14.6849 12.2301 14.0378 11.9734L13.7765 11.8626L13.5001 13.4085C13.964 13.5991 14.8235 13.7673 15.7123 13.776C17.7957 13.78 19.1538 12.8544 19.1689 11.4289L19.1681 11.4313ZM26.1399 13.6812L24.5401 6.79837H23.0042C22.5304 6.79837 22.1696 6.92274 21.9669 7.37001L19.0187 13.682H21.1021C21.1021 13.682 21.4425 12.8313 21.5172 12.6503H24.0654C24.125 12.8943 24.3028 13.682 24.3028 13.682L26.1399 13.6812Z" fill="white"/>
</svg>

<svg xmlns="http://www.w3.org/2000/svg" width="29" height="21" fill="none"><path fill="#fff" d="M23.282 9.248s.375 1.648.459 1.993h-1.649l.79-1.927c-.01.013.163-.404.262-.66zm5.228-6.702v15.591c0 .564-.25 1.105-.694 1.503a2.52 2.52 0 0 1-1.676.623H2.438a2.52 2.52 0 0 1-1.676-.623 2.02 2.02 0 0 1-.695-1.503V2.546c0-.564.25-1.105.695-1.504A2.52 2.52 0 0 1 2.438.42H26.14c.628 0 1.231.225 1.676.623.444.4.694.94.694 1.504M7.598 13.672l3.121-6.874H8.62l-1.94 4.695-.212-.952-.692-3.162c-.114-.439-.464-.563-.898-.58H1.683l-.034.136a8.3 8.3 0 0 1 2.083.758l1.768 5.98zm4.662.01 1.245-6.884H11.52l-1.24 6.883zm6.908-2.25c.01-.784-.523-1.382-1.664-1.874-.696-.315-1.12-.527-1.12-.851.01-.293.36-.594 1.14-.594A3.7 3.7 0 0 1 19 8.375l.178.075.272-1.489a5.4 5.4 0 0 0-1.778-.293c-1.96 0-3.338.94-3.348 2.277-.015.987.988 1.537 1.739 1.868.765.337 1.027.558 1.027.855-.01.46-.622.673-1.19.673-.79 0-1.215-.11-1.862-.368l-.261-.11-.277 1.546c.464.19 1.323.358 2.212.367 2.084.004 3.442-.922 3.457-2.347zm6.972 2.25-1.6-6.884h-1.536c-.474 0-.834.125-1.037.572l-2.948 6.312h2.083s.34-.85.415-1.032h2.548c.06.244.238 1.032.238 1.032z"/></svg>
